X: 42
P: No. XLII.
M: 6/8
L: 1/8
K: G
V: 1
c |\
cec BdB | A>GA BGE | GFE Ddc | B>cA G2 |]
V: 2 clef=bass middle=d
z | d2c B>AG | c3 d3 | e2c B2c | d2D G2z |\
d2c B>AG | c3 d3 | e2c B2c | e2D G2 :|
d |\
g2a b2g | c'3 b3 | g3 c'3 | b3 d3 |\
f3 g3 | f3 e3 | edc B2c | d2D G2 |]

